dist/img/svg/ic_ig.svg

<svg width="20" height="21" viewBox="0 0 20 21" fill="none" xmlns="http://www.w3.org/2000/svg">
<path d="M10.0044 5.29478C7.1651 5.29478 4.87492 7.58496 4.87492 10.4242C4.87492 13.2635 7.1651 15.5537 10.0044 15.5537C12.8437 15.5537 15.1338 13.2635 15.1338 10.4242C15.1338 7.58496 12.8437 5.29478 10.0044 5.29478ZM10.0044 13.7591C8.16956 13.7591 6.66956 12.2635 6.66956 10.4242C6.66956 8.58496 8.1651 7.08943 10.0044 7.08943C11.8437 7.08943 13.3392 8.58496 13.3392 10.4242C13.3392 12.2635 11.8392 13.7591 10.0044 13.7591ZM16.5401 5.08496C16.5401 5.75014 16.0044 6.28139 15.3437 6.28139C14.6785 6.28139 14.1472 5.74568 14.1472 5.08496C14.1472 4.42425 14.6829 3.88853 15.3437 3.88853C16.0044 3.88853 16.5401 4.42425 16.5401 5.08496ZM19.9374 6.29925C19.8615 4.69657 19.4954 3.27693 18.3213 2.10728C17.1517 0.937639 15.732 0.571568 14.1294 0.491211C12.4776 0.397461 7.5267 0.397461 5.87492 0.491211C4.27671 0.567104 2.85707 0.933175 1.68296 2.10282C0.508858 3.27246 0.147251 4.6921 0.0668944 6.29478C-0.0268554 7.94657 -0.0268554 12.8975 0.0668944 14.5492C0.142787 16.1519 0.508858 17.5716 1.68296 18.7412C2.85707 19.9109 4.27224 20.2769 5.87492 20.3573C7.5267 20.451 12.4776 20.451 14.1294 20.3573C15.732 20.2814 17.1517 19.9153 18.3213 18.7412C19.491 17.5716 19.857 16.1519 19.9374 14.5492C20.0311 12.8975 20.0311 7.95103 19.9374 6.29925ZM17.8035 16.3216C17.4553 17.1966 16.7812 17.8707 15.9017 18.2234C14.5847 18.7457 11.4597 18.6251 10.0044 18.6251C8.54902 18.6251 5.41956 18.7412 4.10707 18.2234C3.23207 17.8751 2.55796 17.201 2.20528 16.3216C1.68296 15.0046 1.8035 11.8796 1.8035 10.4242C1.8035 8.96889 1.68743 5.83943 2.20528 4.52693C2.5535 3.65193 3.2276 2.97782 4.10707 2.62514C5.42403 2.10282 8.54902 2.22335 10.0044 2.22335C11.4597 2.22335 14.5892 2.10728 15.9017 2.62514C16.7767 2.97335 17.4508 3.64746 17.8035 4.52693C18.3258 5.84389 18.2053 8.96889 18.2053 10.4242C18.2053 11.8796 18.3258 15.0091 17.8035 16.3216Z" fill="#C13584"/>
</svg>

<svg width="20" height="21" viewBox="0 0 20 21" fill="none" xmlns="http://www.w3.org/2000/svg"><path d="M10.004 5.295a5.122 5.122 0 00-5.13 5.13 5.122 5.122 0 005.13 5.129c2.84 0 5.13-2.29 5.13-5.13 0-2.839-2.29-5.13-5.13-5.13zm0 8.464a3.34 3.34 0 01-3.334-3.335 3.338 3.338 0 013.334-3.335 3.338 3.338 0 013.335 3.335 3.34 3.34 0 01-3.335 3.335zm6.536-8.674c0 .665-.536 1.196-1.196 1.196a1.197 1.197 0 111.196-1.196zm3.397 1.214c-.076-1.602-.442-3.022-1.616-4.192C17.151.937 15.732.572 14.13.491c-1.651-.094-6.602-.094-8.254 0-1.598.076-3.018.442-4.192 1.612C.509 3.273.147 4.693.067 6.295c-.094 1.652-.094 6.603 0 8.254.076 1.603.442 3.023 1.616 4.192 1.174 1.17 2.59 1.536 4.192 1.616 1.652.094 6.603.094 8.254 0 1.603-.076 3.023-.442 4.192-1.616 1.17-1.17 1.536-2.59 1.616-4.192.094-1.651.094-6.598 0-8.25zm-2.134 10.023a3.376 3.376 0 01-1.901 1.901c-1.317.523-4.442.402-5.898.402-1.455 0-4.584.116-5.897-.402a3.377 3.377 0 01-1.902-1.901c-.522-1.317-.401-4.442-.401-5.898 0-1.455-.117-4.585.401-5.897a3.376 3.376 0 011.902-1.902c1.317-.522 4.442-.402 5.897-.402 1.456 0 4.585-.116 5.898.402a3.376 3.376 0 011.902 1.902c.522 1.317.401 4.442.401 5.897 0 1.456.12 4.585-.401 5.898z" fill="#C13584"/></svg>
